public/svgs/light/input-numeric.svg

<svg xmlns="http://www.w3.org/2000/svg" viewBox="0 0 640 512"><!-- Font Awesome Pro 6.0.0-alpha2 by @fontawesome - https://fontawesome.com License - https://fontawesome.com/license (Commercial License) --><path d="M576.002 64H63.998C28.654 64 0 92.652 0 128V384C0 419.346 28.654 448 63.998 448H576.002C611.346 448 640 419.348 640 384V128C640 92.654 611.346 64 576.002 64ZM608 384C608 401.645 593.646 416 576.002 416H63.998C46.354 416 32 401.645 32 384V128C32 110.355 46.354 96 63.998 96H576.002C593.646 96 608 110.355 608 128V384ZM176 320H160V176C160 167.156 152.844 160 144 160H112C103.156 160 96 167.156 96 176S103.156 192 112 192H128V320H112C103.156 320 96 327.156 96 336S103.156 352 112 352H176C184.844 352 192 344.844 192 336S184.844 320 176 320ZM336 320H276.656L327.312 265.359C344.594 246.734 348.984 220.625 338.781 197.219C328.766 174.266 307.141 160 282.359 160C261.422 160 241.781 172.938 231.125 193.766C227.094 201.641 230.203 211.281 238.062 215.297C246 219.375 255.562 216.234 259.594 208.359C271.875 184.469 300.859 190.281 309.453 210.016C313.406 219.078 314 232.656 303.844 243.609L228.266 325.125C223.938 329.781 222.797 336.562 225.344 342.406C227.875 348.219 233.641 352 240 352H336C344.844 352 352 344.844 352 336S344.844 320 336 320Z"/></svg>

<svg xmlns="http://www.w3.org/2000/svg" viewBox="0 0 640 512"><!--! Font Awesome Pro 6.5.1 by @fontawesome - https://fontawesome.com License - https://fontawesome.com/license (Commercial License) Copyright 2023 Fonticons, Inc. --><path d="M576 96c17.7 0 32 14.3 32 32V384c0 17.7-14.3 32-32 32H64c-17.7 0-32-14.3-32-32V128c0-17.7 14.3-32 32-32H576zM64 64C28.7 64 0 92.7 0 128V384c0 35.3 28.7 64 64 64H576c35.3 0 64-28.7 64-64V128c0-35.3-28.7-64-64-64H64zM96 176c0 8.8 7.2 16 16 16h16V320H112c-8.8 0-16 7.2-16 16s7.2 16 16 16h64c8.8 0 16-7.2 16-16s-7.2-16-16-16H160V176c0-8.8-7.2-16-16-16H112c-8.8 0-16 7.2-16 16zm168.7 27.4c9.4-11.3 26.2-12.6 37.2-2.9c10.8 9.5 11.9 25.9 2.5 36.7l-76.6 88.3c-4.1 4.7-5.1 11.4-2.5 17.1s8.3 9.4 14.6 9.4h96c8.8 0 16-7.2 16-16s-7.2-16-16-16H275l53.6-61.9c20.9-24.2 18.4-60.7-5.6-81.8c-24.6-21.5-62-18.5-82.9 6.5l-12.4 14.9c-5.7 6.8-4.7 16.9 2 22.5s16.9 4.7 22.5-2l12.4-14.9z"/></svg>
